!!!COM:	Josquin des Pres
**kern	**kern
*part2	*part1
*staff2	*staff1
*clefF4	*clefGv2
*k[]	*k[]
*M2/1	*M2/1
=1-	=1-
0D	0r
=2	=2
1E	0r
1G	.
=3	=3
2F	0A
2D	.
1F	.
=4	=4
1E	1B
1D	1d
=5	=5
0A	2c
.	2A
.	1c
=6	=6
2G	1B
2E	.
2.F	1A
4E	.
=7	=7
1C	0e
[1G	.
=8	=8
1G]	2d
.	2B
1A	2.c
.	4B
=9	=9
1B	0G
[1E	.
=10	=10
1E]	1c
1B	1d
=11	=11
1c	1e
1d	[1f
=12	=12
1D	2f]
.	4e
.	4d
[1A	2f
.	2e
=13	=13
1A]	1c
1B	1d
=14	=14
0c	1e
.	1A
=15	=15
1C	2r
.	2e
1G	2d
.	[2e
=16	=16
1E	2e]
.	2g
1A	2f
.	[2e
=17	=17
2r	4e]
.	4d
2A	4c
.	8BL
.	8AJ
2G	2B
[2A	2A
=18	=18
2A]	1c
2c	.
2B	2d
[2A	2f
=19	=19
4A]	2e
4G	.
4F	2A
8EL	.
8DJ	.
2E	1c
2AA	.
=20	=20
2r	2d
2A	2f
2G	2.e
[2A	.
.	4d
=21	=21
2A]	2f
2c	2e
2B	2d
[2A	[2f
=22	=22
4A]	4f]
4G	4e
4F	1d
8EL	.
8DJ	.
1E	.
.	2c
=23	=23
0D	0d
==	==
*-	*-
